ocio/aces-v2.0/config.ocio
# Modified ACES Studio OCIO by Chris Denny
# Updated to ACES v2.0 - Last Modified: 2024-09-23

ocio_profile_version: 2.4

environment:
  {}
search_path: ""
strictparsing: true
luma: [0.2126, 0.7152, 0.0722]
name: CDFX-studio-config-v3.0.0_aces-v2.0_ocio-v2.4
description: |
  Academy Color Encoding System - Custom Config [COLORSPACES v3.0.0] [ACES v2.0] [OCIO v2.4]
  --------------------------------------------------------------------------------------

  This mixed approach "OpenColorIO" config is geared toward computer graphics artists requiring a config that includes common camera colorspaces, common SDR/HDR displays and looks.
  Modified ACES v2.0 Studio OCIO by Chris Denny. Last modified 2024-09-23.

roles:
  aces_interchange: ACES2065-1
  cie_xyz_d65_interchange: CIE XYZ-D65 - Display-referred
  color_picking: Linear Rec.709 (sRGB)
  color_timing: ACEScct
  compositing_log: ACEScct
  data: Raw
  matte_paint: ACEScct
  scene_linear: ACEScg
  texture_paint: sRGB Encoded Rec.709 (sRGB)

file_rules:
  - !<Rule> {name: srgb_tex, colorspace: sRGB Encoded Rec.709 (sRGB), regex: ".*[^a-zA-Z0-9]([sS][rR][gG][bB][^a-zA-Z0-9]).*"}
  - !<Rule> {name: ACEScg, colorspace: ACEScg, pattern: "*ACEScg*", extension: "*"}
  - !<Rule> {name: color_tex, colorspace: sRGB Encoded Rec.709 (sRGB), regex: ".*[^a-zA-Z0-9]([aA][lL][bB][eE][dD][oO]|[dD][iI][fF][fF]|[cC][oO][lL][^a-zA-Z0-9]|[bB][aA][sS][eE].?[cC][oO][lL][oO][rR]|[eE][mM][iI][sS][sS][iI][oO][nN]|[iI][lL][lL][uU][mM]|[rR][eE][fF][lL]|[tT][rR][aA][nN][sS][mM]|[tT][rR][aA][nN][sS][lL]).*"}
  - !<Rule> {name: raw_tex, colorspace: Raw, regex: ".*[^a-zA-Z0-9]([rR][oO][uU][gG][hH]|[sS][pP][eE][cC]|[mM][eE][tT][aA][lL][lL][iI][cC]|[mM][eE][tT][aA][lL].?[nN][eE][sS][sS]|[nN][oO][rR][mM][aA][lL]|[nN][oO][rR][mM][^a-zA-Z0-9]|[nN][oO][rR][gG][lL][^a-zA-Z0-9]|[nN][oO][rR][dD][xX][^a-zA-Z0-9]|[nN][oO][rR][^a-zA-Z0-9]|[nN][rR][mM]|[bB][uU][mM][pP]|[hH][eE][iI][gG][hH][tT]|[dD][iI][sS][pP]|[iI][oO][rR][^a-zA-Z0-9]|[oO][pP][aA][cC]|[aA][lL][pP][hH][aA]|[mM][aA][sS][kK][^a-zA-Z0-9]|[uU][tT][iI][lL][iI][tT][yY][^a-zA-Z0-9]|[gG][lL][oO][sS][sS][^a-zA-Z0-9]|[gG][lL][oO][sS][sS][iI][nN][eE][sS][sS]|[aA][oO][^a-zA-Z0-9]|[aA][mM][bB][iI][eE][nN][tT].?[oO][cC][cC][lL][uU][sS][iI][oO][nN]|[sS][sS][sS][^a-zA-Z0-9]).*"}
  - !<Rule> {name: jpg, colorspace: sRGB Encoded Rec.709 (sRGB), pattern: "*", extension: jpg}
  - !<Rule> {name: jpeg, colorspace: sRGB Encoded Rec.709 (sRGB), pattern: "*", extension: jpeg}
  - !<Rule> {name: tga, colorspace: sRGB Encoded Rec.709 (sRGB), pattern: "*", extension: tga}
  - !<Rule> {name: png, colorspace: sRGB Encoded Rec.709 (sRGB), pattern: "*", extension: png}
  - !<Rule> {name: tif, colorspace: sRGB Encoded Rec.709 (sRGB), pattern: "*", extension: tif}
  - !<Rule> {name: tiff, colorspace: sRGB Encoded Rec.709 (sRGB), pattern: "*", extension: tiff}
  - !<Rule> {name: exr, colorspace: Linear Rec.709 (sRGB), pattern: "*", extension: exr}
  - !<Rule> {name: hdr, colorspace: Linear Rec.709 (sRGB), pattern: "*", extension: hdr}
  - !<Rule> {name: tx, colorspace: Raw, pattern: "*", extension: tx}
  - !<Rule> {name: __usdz_jpg, colorspace: sRGB Encoded Rec.709 (sRGB), regex: ".[uu][ss][dd][zz]\\[.*[jj][pp][gg]\\]"}
  - !<Rule> {name: __usdz_jpeg, colorspace: sRGB Encoded Rec.709 (sRGB), regex: ".[uu][ss][dd][zz]\\[.*[jj][pp][ee][gg]\\]"}
  - !<Rule> {name: __usdz_tga, colorspace: sRGB Encoded Rec.709 (sRGB), regex: ".[uu][ss][dd][zz]\\[.*[tt][gg][aa]\\]"}
  - !<Rule> {name: __usdz_png, colorspace: sRGB Encoded Rec.709 (sRGB), regex: ".[uu][ss][dd][zz]\\[.*[pp][nn][gg]\\]"}
  - !<Rule> {name: __usdz_tif, colorspace: sRGB Encoded Rec.709 (sRGB), regex: ".[uu][ss][dd][zz]\\[.*[tt][ii][ff]\\]"}
  - !<Rule> {name: __usdz_tiff, colorspace: sRGB Encoded Rec.709 (sRGB), regex: ".[uu][ss][dd][zz]\\[.*[tt][ii][ff][ff]\\]"}
  - !<Rule> {name: __usdz_exr, colorspace: Linear Rec.709 (sRGB), regex: ".[uu][ss][dd][zz]\\[.*[ee][xx][rr]\\]"}
  - !<Rule> {name: __usdz_hdr, colorspace: Linear Rec.709 (sRGB), regex: ".[uu][ss][dd][zz]\\[.*[hh][dd][rr]\\]"}
  - !<Rule> {name: __usdz_tx, colorspace: Raw, regex: ".[uu][ss][dd][zz]\\[.*[tt][xx]\\]"}
  - !<Rule> {name: Default, colorspace: ACES2065-1}
  
shared_views:
  - !<View> {name: ACES 2.0 - SDR 100 nits (Rec.709), view_transform: ACES 2.0 - SDR 100 nits (Rec.709), display_colorspace: <USE_DISPLAY_NAME>}
  - !<View> {name: ACES 1.0 - SDR-video, view_transform: ACES 1.0 - SDR-video, display_colorspace: <USE_DISPLAY_NAME>}
  - !<View> {name: ACES 2.0 - SDR 100 nits (P3 D65), view_transform: ACES 2.0 - SDR 100 nits (P3 D65), display_colorspace: <USE_DISPLAY_NAME>}
  - !<View> {name: ACES 2.0 - HDR 1000 nits (P3 D65), view_transform: ACES 2.0 - HDR 1000 nits (P3 D65), display_colorspace: <USE_DISPLAY_NAME>}
  - !<View> {name: ACES 2.0 - HDR 500 nits (P3 D65), view_transform: ACES 2.0 - HDR 500 nits (P3 D65), display_colorspace: <USE_DISPLAY_NAME>}
  - !<View> {name: ACES 2.0 - HDR 2000 nits (P3 D65), view_transform: ACES 2.0 - HDR 2000 nits (P3 D65), display_colorspace: <USE_DISPLAY_NAME>}
  - !<View> {name: ACES 2.0 - HDR 4000 nits (P3 D65), view_transform: ACES 2.0 - HDR 4000 nits (P3 D65), display_colorspace: <USE_DISPLAY_NAME>}
  - !<View> {name: ACES 2.0 - HDR 500 nits (Rec.2020), view_transform: ACES 2.0 - HDR 500 nits (Rec.2020), display_colorspace: <USE_DISPLAY_NAME>}
  - !<View> {name: ACES 2.0 - HDR 1000 nits (Rec.2020), view_transform: ACES 2.0 - HDR 1000 nits (Rec.2020), display_colorspace: <USE_DISPLAY_NAME>}
  - !<View> {name: ACES 2.0 - HDR 2000 nits (Rec.2020), view_transform: ACES 2.0 - HDR 2000 nits (Rec.2020), display_colorspace: <USE_DISPLAY_NAME>}
  - !<View> {name: ACES 2.0 - HDR 4000 nits (Rec.2020), view_transform: ACES 2.0 - HDR 4000 nits (Rec.2020), display_colorspace: <USE_DISPLAY_NAME>}
  - !<View> {name: ACES 2.0 - HDR 108 nits (P3 D65), view_transform: ACES 2.0 - HDR 108 nits (P3 D65), display_colorspace: <USE_DISPLAY_NAME>}
  - !<View> {name: Un-tone-mapped, view_transform: Un-tone-mapped, display_colorspace: <USE_DISPLAY_NAME>}
  - !<View> {name: Log, colorspace: ACEScct}
  - !<View> {name: Raw, colorspace: Raw}

displays:
  sRGB - Display:
    - !<Views> [ACES 2.0 - SDR 100 nits (Rec.709), ACES 1.0 - SDR-video, Un-tone-mapped, Log, Raw]
  Display P3 - Display:
    - !<Views> [ACES 2.0 - SDR 100 nits (P3 D65), Un-tone-mapped, Log, Raw]
  Display P3 HDR - Display:
    - !<Views> [ACES 2.0 - HDR 1000 nits (P3 D65), ACES 2.0 - SDR 100 nits (Rec.709), Un-tone-mapped, Log, Raw]
  P3-D65 - Display:
    - !<Views> [ACES 2.0 - SDR 100 nits (P3 D65), ACES 2.0 - SDR 100 nits (Rec.709), Un-tone-mapped, Log, Raw]
  Rec.1886 Rec.709 - Display:
    - !<Views> [ACES 2.0 - SDR 100 nits (Rec.709), Un-tone-mapped, Log, Raw]
  Rec.2100-HLG - Display:
    - !<Views> [ACES 2.0 - HDR 1000 nits (P3 D65), Un-tone-mapped, Log, Raw]
  Rec.2100-PQ - Display:
    - !<Views> [ACES 2.0 - HDR 500 nits (P3 D65), ACES 2.0 - HDR 1000 nits (P3 D65), ACES 2.0 - HDR 2000 nits (P3 D65), ACES 2.0 - HDR 4000 nits (P3 D65), ACES 2.0 - HDR 500 nits (Rec.2020), ACES 2.0 - HDR 1000 nits (Rec.2020), ACES 2.0 - HDR 2000 nits (Rec.2020), ACES 2.0 - HDR 4000 nits (Rec.2020), ACES 2.0 - SDR 100 nits (Rec.709), Un-tone-mapped, Log, Raw]
  ST2084-P3-D65 - Display:
    - !<Views> [ACES 2.0 - HDR 108 nits (P3 D65), ACES 2.0 - HDR 500 nits (P3 D65), ACES 2.0 - HDR 1000 nits (P3 D65), ACES 2.0 - HDR 2000 nits (P3 D65), ACES 2.0 - HDR 4000 nits (P3 D65), ACES 2.0 - SDR 100 nits (Rec.709), Un-tone-mapped, Log, Raw]

active_displays: [sRGB - Display, Display P3 - Display, Display P3 HDR - Display, P3-D65 - Display, Rec.1886 Rec.709 - Display, Rec.2100-HLG - Display, Rec.2100-PQ - Display, ST2084-P3-D65 - Display]
active_views: [ACES 2.0 - HDR 1000 nits (P3 D65), ACES 2.0 - HDR 1000 nits (Rec.2020), ACES 2.0 - HDR 2000 nits (P3 D65), ACES 2.0 - HDR 2000 nits (Rec.2020), ACES 2.0 - HDR 4000 nits (P3 D65), ACES 2.0 - HDR 4000 nits (Rec.2020), ACES 2.0 - HDR 500 nits (P3 D65), ACES 2.0 - HDR 500 nits (Rec.2020), ACES 2.0 - HDR 108 nits (P3 D65), ACES 2.0 - SDR 100 nits (P3 D65), ACES 2.0 - SDR 100 nits (Rec.709), ACES 1.0 - SDR-video, Un-tone-mapped, Raw]
inactive_colorspaces: [CIE XYZ-D65 - Display-referred, CIE XYZ-D65 - Scene-referred]

looks:
  - !<Look>
    name: ACES 1.3 Reference Gamut Compression
    process_space: ACES2065-1
    description: |
      LMT (applied in ACES2065-1) to compress scene-referred values from common cameras into the AP1 gamut

      ACEStransformID: urn:ampas:aces:transformId:v2.0:Look.Academy.ReferenceGamutCompress.a2.v1

      AMF Components
      --------------
      ACEStransformID: urn:ampas:aces:transformId:v2.0:InvLook.Academy.ReferenceGamutCompress.a2.v1
    transform: !<BuiltinTransform> {style: ACES-LMT - ACES 1.3 Reference Gamut Compression}

default_view_transform: ACES 2.0 - SDR 100 nits (Rec.709)

view_transforms:
  - !<ViewTransform>
    name: Un-tone-mapped
    from_scene_reference: !<BuiltinTransform> {style: UTILITY - ACES-AP0_to_CIE-XYZ-D65_BFD}

  - !<ViewTransform>
    name: ACES 2.0 - SDR 100 nits (Rec.709)
    description: |
      Component of ACES 2 Output Transforms for 100 nit SDR Rec709

      ACEStransformID: urn:ampas:aces:transformId:v2.0:Output.Academy.Rec709-D65_100nit_in_P3-D65_ST2084.a2.v1

      AMF Components
      --------------
      ACEStransformID: urn:ampas:aces:transformId:v2.0:InvOutput.Academy.Rec709-D65_100nit_in_P3-D65_ST2084.a2.v1
    from_scene_reference: !<BuiltinTransform> {style: ACES-OUTPUT - ACES2065-1_to_CIE-XYZ-D65 - SDR-100nit-REC709_2.0}

  - !<ViewTransform>
    name: ACES 2.0 - SDR 100 nits (P3 D65)
    description: |
      Component of ACES 2 Output Transforms for 100 nit SDR P3-D65

      ACEStransformID: urn:ampas:aces:transformId:v2.0:Output.Academy.P3-D65_48nit_in_P3-D65_Gamma2pt6.a2.v1

      AMF Components
      --------------
      ACEStransformID: urn:ampas:aces:transformId:v2.0:InvOutput.Academy.P3-D65_48nit_in_P3-D65_Gamma2pt6.a2.v1
    from_scene_reference: !<BuiltinTransform> {style: ACES-OUTPUT - ACES2065-1_to_CIE-XYZ-D65 - SDR-100nit-P3-D65_2.0}

  - !<ViewTransform>
    name: ACES 2.0 - HDR 1000 nits (P3 D65)
    description: |
      Component of ACES 2 Output Transforms for 1000 nit HDR P3-D65

      ACEStransformID: urn:ampas:aces:transformId:v2.0:Output.Academy.P3-D65_1000nit_in_P3-D65_ST2084.a2.v1

      AMF Components
      --------------
      ACEStransformID: urn:ampas:aces:transformId:v2.0:InvOutput.Academy.P3-D65_1000nit_in_P3-D65_ST2084.a2.v1
    from_scene_reference: !<BuiltinTransform> {style: ACES-OUTPUT - ACES2065-1_to_CIE-XYZ-D65 - HDR-1000nit-P3-D65_2.0}

  - !<ViewTransform>
    name: ACES 2.0 - HDR 500 nits (P3 D65)
    description: |
      Component of ACES 2 Output Transforms for 500 nit HDR P3-D65

      ACEStransformID: urn:ampas:aces:transformId:v2.0:Output.Academy.P3-D65_500nit_in_P3-D65_ST2084.a2.v1

      AMF Components
      --------------
      ACEStransformID: urn:ampas:aces:transformId:v2.0:InvOutput.Academy.P3-D65_500nit_in_P3-D65_ST2084.a2.v1
    from_scene_reference: !<BuiltinTransform> {style: ACES-OUTPUT - ACES2065-1_to_CIE-XYZ-D65 - HDR-500nit-P3-D65_2.0}

  - !<ViewTransform>
    name: ACES 2.0 - HDR 2000 nits (P3 D65)
    description: |
      Component of ACES 2 Output Transforms for 2000 nit HDR P3-D65

      ACEStransformID: urn:ampas:aces:transformId:v2.0:Output.Academy.P3-D65_2000nit_in_P3-D65_ST2084.a2.v1

      AMF Components
      --------------
      ACEStransformID: urn:ampas:aces:transformId:v2.0:InvOutput.Academy.P3-D65_2000nit_in_P3-D65_ST2084.a2.v1
    from_scene_reference: !<BuiltinTransform> {style: ACES-OUTPUT - ACES2065-1_to_CIE-XYZ-D65 - HDR-2000nit-P3-D65_2.0}

  - !<ViewTransform>
    name: ACES 2.0 - HDR 4000 nits (P3 D65)
    description: |
      Component of ACES 2 Output Transforms for 4000 nit HDR P3-D65

      ACEStransformID: urn:ampas:aces:transformId:v2.0:Output.Academy.P3-D65_4000nit_in_P3-D65_ST2084.a2.v1

      AMF Components
      --------------
      ACEStransformID: urn:ampas:aces:transformId:v2.0:InvOutput.Academy.P3-D65_4000nit_in_P3-D65_ST2084.a2.v1
    from_scene_reference: !<BuiltinTransform> {style: ACES-OUTPUT - ACES2065-1_to_CIE-XYZ-D65 - HDR-4000nit-P3-D65_2.0}

  - !<ViewTransform>
    name: ACES 2.0 - HDR 500 nits (Rec.2020)
    description: |
      Component of ACES 2 Output Transforms for 500 nit HDR Rec2020

      ACEStransformID: urn:ampas:aces:transformId:v2.0:Output.Academy.Rec2100-D65_500nit_in_Rec2100-D65_ST2084.a2.v1

      AMF Components
      --------------
      ACEStransformID: urn:ampas:aces:transformId:v2.0:InvOutput.Academy.Rec2100-D65_500nit_in_Rec2100-D65_ST2084.a2.v1
    from_scene_reference: !<BuiltinTransform> {style: ACES-OUTPUT - ACES2065-1_to_CIE-XYZ-D65 - HDR-500nit-REC2020_2.0}

  - !<ViewTransform>
    name: ACES 2.0 - HDR 1000 nits (Rec.2020)
    description: |
      Component of ACES 2 Output Transforms for 1000 nit HDR Rec2020

      ACEStransformID: urn:ampas:aces:transformId:v2.0:Output.Academy.Rec2100-D65_1000nit_in_Rec2100-D65_ST2084.a2.v1

      AMF Components
      --------------
      ACEStransformID: urn:ampas:aces:transformId:v2.0:InvOutput.Academy.Rec2100-D65_1000nit_in_Rec2100-D65_ST2084.a2.v1
    from_scene_reference: !<BuiltinTransform> {style: ACES-OUTPUT - ACES2065-1_to_CIE-XYZ-D65 - HDR-1000nit-REC2020_2.0}

  - !<ViewTransform>
    name: ACES 2.0 - HDR 2000 nits (Rec.2020)
    description: |
      Component of ACES 2 Output Transforms for 2000 nit HDR Rec2020

      ACEStransformID: urn:ampas:aces:transformId:v2.0:Output.Academy.Rec2100-D65_2000nit_in_Rec2100-D65_ST2084.a2.v1

      AMF Components
      --------------
      ACEStransformID: urn:ampas:aces:transformId:v2.0:InvOutput.Academy.Rec2100-D65_2000nit_in_Rec2100-D65_ST2084.a2.v1
    from_scene_reference: !<BuiltinTransform> {style: ACES-OUTPUT - ACES2065-1_to_CIE-XYZ-D65 - HDR-2000nit-REC2020_2.0}

  - !<ViewTransform>
    name: ACES 2.0 - HDR 4000 nits (Rec.2020)
    description: |
      Component of ACES 2 Output Transforms for 4000 nit HDR Rec2020

      ACEStransformID: urn:ampas:aces:transformId:v2.0:Output.Academy.Rec2100-D65_4000nit_in_Rec2100-D65_ST2084.a2.v1

      AMF Components
      --------------
      ACEStransformID: urn:ampas:aces:transformId:v2.0:InvOutput.Academy.Rec2100-D65_4000nit_in_Rec2100-D65_ST2084.a2.v1
    from_scene_reference: !<BuiltinTransform> {style: ACES-OUTPUT - ACES2065-1_to_CIE-XYZ-D65 - HDR-4000nit-REC2020_2.0}

  - !<ViewTransform>
    name: ACES 2.0 - HDR 108 nits (P3 D65)
    description: |
      Component of ACES 2 Output Transforms for 108 nit HDR P3-D65

      ACEStransformID: urn:ampas:aces:transformId:v2.0:Output.Academy.P3-D65_108nit_in_P3-D65_ST2084.a2.v1

      AMF Components
      --------------
      ACEStransformID: urn:ampas:aces:transformId:v2.0:InvOutput.Academy.P3-D65_108nit_in_P3-D65_ST2084.a2.v1
    from_scene_reference: !<BuiltinTransform> {style: ACES-OUTPUT - ACES2065-1_to_CIE-XYZ-D65 - HDR-108nit-P3-D65_2.0}

  - !<ViewTransform>
    name: ACES 1.0 - SDR-video
    description: |
      ACES Output Transform for SDR displays in a video viewing environment. ACES neutrals are at D65.
    from_scene_reference: !<BuiltinTransform> {style: "ACES-OUTPUT - ACES2065-1_to_CIE-XYZ-D65 - SDR-VIDEO_1.0"}

display_colorspaces:
  - !<ColorSpace>
    name: CIE XYZ-D65 - Display-referred
    aliases: [cie_xyz_d65_display, lin_ciexyzd65_display]
    family: ""
    equalitygroup: ""
    bitdepth: 32f
    description: The "CIE XYZ (D65)" display connection colorspace.
    isdata: false
    encoding: display-linear
    allocation: uniform

  - !<ColorSpace>
    name: sRGB - Display
    aliases: [srgb_display]
    family: Display
    equalitygroup: ""
    bitdepth: 32f
    description: |
      Convert CIE XYZ (D65 white) to sRGB (piecewise EOTF)

      AMF Components
      --------------
      ACEStransformID: urn:ampas:aces:transformId:v2.0:Output.Academy.Rec709-D65_100nit_in_Rec709-D65_sRGB-Piecewise.a2.v1
      ACEStransformID: urn:ampas:aces:transformId:v2.0:InvOutput.Academy.Rec709-D65_100nit_in_Rec709-D65_sRGB-Piecewise.a2.v1
      ACEStransformID: urn:ampas:aces:transformId:v2.0:Output.Academy.Rec709-D60_100nit_in_Rec709-D65_sRGB-Piecewise.a2.v1
      ACEStransformID: urn:ampas:aces:transformId:v2.0:InvOutput.Academy.Rec709-D60_100nit_in_Rec709-D65_sRGB-Piecewise.a2.v1
    isdata: false
    categories: [file-io]
    encoding: sdr-video
    allocation: uniform
    from_display_reference: !<BuiltinTransform> {style: DISPLAY - CIE-XYZ-D65_to_sRGB}

  - !<ColorSpace>
    name: AdobeRGB - Display
    family:
    description: |
      AdobeRGB
    isdata: false
    categories: [ file-io ]
    encoding: sdr-video
    from_display_reference: !<GroupTransform>
      children:
        - !<MatrixTransform> {matrix: [ 2.041587903811, -0.565006974279, -0.344731350778, 0, -0.969243636281, 1.875967501508, 0.041555057407, 0, 0.013444280632, -0.118362392231, 1.015174994391, 0, 0, 0, 0, 1 ]}
        - !<ExponentTransform> {value: 2.19921875, direction: inverse}
        - !<RangeTransform> {min_in_value: 0., min_out_value: 0., max_in_value: 1., max_out_value: 1.}

  - !<ColorSpace>
    name: Display P3 - Display
    aliases: [displayp3_display]
    family: Display
    equalitygroup: ""
    bitdepth: 32f
    description: |
      Convert CIE XYZ (D65 white) to Apple Display P3

      AMF Components
      --------------
      ACEStransformID: urn:ampas:aces:transformId:v2.0:Output.Academy.P3-D65_100nit_in_P3-D65_sRGB-Piecewise.a2.v1
      ACEStransformID: urn:ampas:aces:transformId:v2.0:InvOutput.Academy.P3-D65_100nit_in_P3-D65_sRGB-Piecewise.a2.v1
      ACEStransformID: urn:ampas:aces:transformId:v2.0:Output.Academy.P3-D60_100nit_in_P3-D65_sRGB-Piecewise.a2.v1
      ACEStransformID: urn:ampas:aces:transformId:v2.0:InvOutput.Academy.P3-D60_100nit_in_P3-D65_sRGB-Piecewise.a2.v1
    isdata: false
    categories: [file-io]
    encoding: sdr-video
    allocation: uniform
    from_display_reference: !<BuiltinTransform> {style: DISPLAY - CIE-XYZ-D65_to_DisplayP3}

  - !<ColorSpace>
    name: Display P3 HDR - Display
    aliases: [displayp3_hdr_display]
    family: Display
    equalitygroup: ""
    bitdepth: 32f
    description: |
      Convert CIE XYZ (D65 white) to Apple Display P3 (HDR)

      AMF Components
      --------------
      ACEStransformID: urn:ampas:aces:transformId:v2.0:Output.Academy.P3-D65_1000nit_in_P3-D65_sRGB-Piecewise.a2.v1
      ACEStransformID: urn:ampas:aces:transformId:v2.0:InvOutput.Academy.P3-D65_1000nit_in_P3-D65_sRGB-Piecewise.a2.v1
      ACEStransformID: urn:ampas:aces:transformId:v2.0:Output.Academy.P3-D60_1000nit_in_P3-D65_sRGB-Piecewise.a2.v1
      ACEStransformID: urn:ampas:aces:transformId:v2.0:InvOutput.Academy.P3-D60_1000nit_in_P3-D65_sRGB-Piecewise.a2.v1
      ACEStransformID: urn:ampas:aces:transformId:v2.0:Output.Academy.Rec709-D65_100nit_in_P3-D65_sRGB-Piecewise.a2.v1
      ACEStransformID: urn:ampas:aces:transformId:v2.0:InvOutput.Academy.Rec709-D65_100nit_in_P3-D65_sRGB-Piecewise.a2.v1
      ACEStransformID: urn:ampas:aces:transformId:v2.0:Output.Academy.Rec709-D60_100nit_in_P3-D65_sRGB-Piecewise.a2.v1
      ACEStransformID: urn:ampas:aces:transformId:v2.0:InvOutput.Academy.Rec709-D60_100nit_in_P3-D65_sRGB-Piecewise.a2.v1
    isdata: false
    categories: [file-io]
    encoding: hdr-video
    allocation: uniform
    from_display_reference: !<BuiltinTransform> {style: DISPLAY - CIE-XYZ-D65_to_DisplayP3-HDR}

  - !<ColorSpace>
    name: P3-D65 - Display
    aliases: [p3d65_display]
    family: Display
    equalitygroup: ""
    bitdepth: 32f
    description: |
      Convert CIE XYZ (D65 white) to Gamma 2.6, P3-D65

      AMF Components
      --------------
      ACEStransformID: urn:ampas:aces:transformId:v2.0:Output.Academy.P3-D65_48nit_in_P3-D65_Gamma2pt6.a2.v1
      ACEStransformID: urn:ampas:aces:transformId:v2.0:InvOutput.Academy.P3-D65_48nit_in_P3-D65_Gamma2pt6.a2.v1
      ACEStransformID: urn:ampas:aces:transformId:v2.0:Output.Academy.P3-D60_48nit_in_P3-D65_Gamma2pt6.a2.v1
      ACEStransformID: urn:ampas:aces:transformId:v2.0:InvOutput.Academy.P3-D60_48nit_in_P3-D65_Gamma2pt6.a2.v1
      ACEStransformID: urn:ampas:aces:transformId:v2.0:Output.Academy.Rec709-D65_48nit_in_P3-D65_Gamma2pt6.a2.v1
      ACEStransformID: urn:ampas:aces:transformId:v2.0:InvOutput.Academy.Rec709-D65_48nit_in_P3-D65_Gamma2pt6.a2.v1
      ACEStransformID: urn:ampas:aces:transformId:v2.0:Output.Academy.Rec709-D60_48nit_in_P3-D65_Gamma2pt6.a2.v1
      ACEStransformID: urn:ampas:aces:transformId:v2.0:InvOutput.Academy.Rec709-D60_48nit_in_P3-D65_Gamma2pt6.a2.v1
    isdata: false
    categories: [file-io]
    encoding: sdr-video
    allocation: uniform
    from_display_reference: !<BuiltinTransform> {style: DISPLAY - CIE-XYZ-D65_to_G2.6-P3-D65}

  - !<ColorSpace>
    name: Rec.1886 Rec.709 - Display
    aliases: [rec1886_rec709_display]
    family: Display
    equalitygroup: ""
    bitdepth: 32f
    description: |
      Convert CIE XYZ (D65 white) to Rec.1886/Rec.709 (HD video)

      AMF Components
      --------------
      ACEStransformID: urn:ampas:aces:transformId:v2.0:Output.Academy.Rec709-D65_100nit_in_Rec709-D65_BT1886.a2.v1
      ACEStransformID: urn:ampas:aces:transformId:v2.0:InvOutput.Academy.Rec709-D65_100nit_in_Rec709-D65_BT1886.a2.v1
      ACEStransformID: urn:ampas:aces:transformId:v2.0:Output.Academy.Rec709-D60_100nit_in_Rec709-D65_BT1886.a2.v1
      ACEStransformID: urn:ampas:aces:transformId:v2.0:InvOutput.Academy.Rec709-D60_100nit_in_Rec709-D65_BT1886.a2.v1
    isdata: false
    categories: [file-io]
    encoding: sdr-video
    allocation: uniform
    from_display_reference: !<BuiltinTransform> {style: DISPLAY - CIE-XYZ-D65_to_REC.1886-REC.709}

  - !<ColorSpace>
    name: Rec.2100-HLG - Display
    aliases: [rec2100_hlg_display]
    family: Display
    equalitygroup: ""
    bitdepth: 32f
    description: |
      Convert CIE XYZ (D65 white) to Rec.2100-HLG, 1000 nit

      AMF Components
      --------------
      ACEStransformID: urn:ampas:aces:transformId:v2.0:Output.Academy.P3-D65_1000nit_in_Rec2100-D65_HLG.a2.v1
      ACEStransformID: urn:ampas:aces:transformId:v2.0:InvOutput.Academy.P3-D65_1000nit_in_Rec2100-D65_HLG.a2.v1
      ACEStransformID: urn:ampas:aces:transformId:v2.0:Output.Academy.P3-D60_1000nit_in_Rec2100-D65_HLG.a2.v1
      ACEStransformID: urn:ampas:aces:transformId:v2.0:InvOutput.Academy.P3-D60_1000nit_in_Rec2100-D65_HLG.a2.v1
    isdata: false
    categories: [file-io]
    encoding: hdr-video
    allocation: uniform
    from_display_reference: !<BuiltinTransform> {style: DISPLAY - CIE-XYZ-D65_to_REC.2100-HLG-1000nit}

  - !<ColorSpace>
    name: Rec.2100-PQ - Display
    aliases: [rec2100_pq_display]
    family: Display
    equalitygroup: ""
    bitdepth: 32f
    description: |
      Convert CIE XYZ (D65 white) to Rec.2100-PQ

      AMF Components
      --------------
      ACEStransformID: urn:ampas:aces:transformId:v2.0:Output.Academy.P3-D65_500nit_in_Rec2100-D65_ST2084.a2.v1
      ACEStransformID: urn:ampas:aces:transformId:v2.0:InvOutput.Academy.P3-D65_500nit_in_Rec2100-D65_ST2084.a2.v1
      ACEStransformID: urn:ampas:aces:transformId:v2.0:Output.Academy.P3-D65_1000nit_in_Rec2100-D65_ST2084.a2.v1
      ACEStransformID: urn:ampas:aces:transformId:v2.0:InvOutput.Academy.P3-D65_1000nit_in_Rec2100-D65_ST2084.a2.v1
      ACEStransformID: urn:ampas:aces:transformId:v2.0:Output.Academy.P3-D65_2000nit_in_Rec2100-D65_ST2084.a2.v1
      ACEStransformID: urn:ampas:aces:transformId:v2.0:InvOutput.Academy.P3-D65_2000nit_in_Rec2100-D65_ST2084.a2.v1
      ACEStransformID: urn:ampas:aces:transformId:v2.0:Output.Academy.P3-D65_4000nit_in_Rec2100-D65_ST2084.a2.v1
      ACEStransformID: urn:ampas:aces:transformId:v2.0:InvOutput.Academy.P3-D65_4000nit_in_Rec2100-D65_ST2084.a2.v1
      ACEStransformID: urn:ampas:aces:transformId:v2.0:Output.Academy.P3-D60_500nit_in_Rec2100-D65_ST2084.a2.v1
